X: 1541
T: Hey Little Hen
B: australian traditional tunes wiki
M:4/4
L:1/8
R: One Step
Q: 1/4=100
K:D
V:1 
"D"A2dfa4|"G" b2g2"A7"e2"G"Bd|"A7"c2Ac"G"B2 "A7"Ag|"D" f4fe dB|
"D"A2dfa4|"G" b2g2"A7"e2"G"Bd|"A7"c2Ac"G"B2Ac|"D"d8:|
|:"D"ag fga3f|"G"gf efg3e|"D"fe def3f|"A7"ea AA"D"A4:|
"D"A2dfa4|"G"b2g2"A7"e2"G"Bd|"A7"c2Ac"G"B2"A7"Ac|"D"d8|
% abcbook-tune_id 6342d53a586b1ada07c1ec3f


% abcbook-boost 0
% abcbook-tablature 
% abcbook-transpose 
% abcbook-lastupdated 1665324370132
% abcbook-soundfonts 
% abcbook-repeats 1
% NFF Book 2007

